X: 3
T:Beaux of London City
% Nottingham Music Database
S:Adderbury [News] ch(AB3) 6
M:9/8
K:F
C|\
P:A
F3/2F/2F AGF A/2c3/2C|F2F \
P:*
A2G F2C|F3/2F/2F AGF A/2c3/2C|F3/2
P:*
C/2F A2G F2:|\
P:B
c2B AGF Ac2|G2G G2A B3|c2B AGF A/2c3/2C|F3/2C/2F A2G F2:|<end>
<start>
